symbols/web/pin_invoke/materialsymbolssharp/pin_invoke_wght100gradN25_20px.svg

<svg xmlns="http://www.w3.org/2000/svg" height="20" width="20"><path d="m7.604 13.625-.416-.417 3.77-3.77H8.333v-.605h3.646v3.646h-.604V9.875Zm7.646-5.333q-.771 0-1.323-.552-.552-.552-.552-1.344t.552-1.344q.552-.552 1.344-.552.791 0 1.344.562.552.563.552 1.334 0 .792-.563 1.344-.562.552-1.354.552ZM2.854 15.479V4.5h8.438v.604H3.479v9.771h13.063v-4.5h.625v5.104Z"/></svg>

<svg xmlns="http://www.w3.org/2000/svg" height="20" width="20"><path d="M7.604 13.625 7.188 13.208 10.958 9.438H8.333V8.833H11.979V12.479H11.375V9.875ZM15.25 8.292Q14.479 8.292 13.927 7.74Q13.375 7.188 13.375 6.396Q13.375 5.604 13.927 5.052Q14.479 4.5 15.271 4.5Q16.062 4.5 16.615 5.062Q17.167 5.625 17.167 6.396Q17.167 7.188 16.604 7.74Q16.042 8.292 15.25 8.292ZM2.854 15.479V4.5H11.292V5.104H3.479V14.875H16.542V10.375H17.167V15.479Z"/></svg>
